<?xml version="1.0" encoding="UTF-8"?>
<map version="1.11" tiledversion="1.12.2" orientation="orthogonal" renderorder="right-down" width="50" height="35" tilewidth="40" tileheight="40" infinite="0" nextlayerid="17" nextobjectid="483">
 <editorsettings>
  <export target="claimb.lua" format="lua"/>
 </editorsettings>
 <properties>
  <property name="music" value="climb"/>
 </properties>
 <tileset firstgid="1" source="../tilesets/castle.tsx"/>
 <layer id="1" name="Tile Layer 1" width="50" height="35">
  <data encoding="csv">
0,0,0,0,29,0,0,0,0,0,0,0,0,0,0,0,0,0,0,0,0,0,0,0,0,0,0,0,0,0,0,0,0,0,0,0,0,0,0,0,33,5,33,0,5,31,31,15,15,0,
0,0,0,0,29,0,0,0,0,0,0,0,0,0,0,0,0,0,0,0,0,0,0,0,0,0,0,0,0,0,0,0,0,0,0,0,0,0,0,0,33,5,33,0,12,15,15,15,15,0,
0,0,0,0,29,0,0,0,0,0,0,0,0,0,0,0,0,0,0,0,0,0,0,0,0,0,0,0,0,0,0,0,0,0,0,0,0,0,0,0,33,5,33,0,21,33,21,5,21,0,
0,0,0,0,35,0,0,0,0,0,0,0,0,0,0,0,0,0,0,0,0,0,0,0,0,0,0,0,0,0,0,0,0,0,0,0,0,0,0,0,33,5,33,0,33,13,33,33,33,0,
0,0,0,0,29,0,0,0,0,0,0,0,0,0,0,0,0,0,0,0,0,0,0,0,0,0,0,0,0,0,0,0,0,0,0,0,0,0,0,0,33,33,33,0,33,19,5,11,33,0,
0,0,0,0,29,0,0,0,0,0,0,0,0,0,0,0,0,0,0,0,0,0,0,0,0,0,0,0,8,9,9,9,9,10,0,0,0,0,0,0,0,0,0,0,33,33,33,33,33,0,
0,0,0,0,29,0,0,0,0,0,0,0,0,0,0,0,0,0,0,0,0,0,0,0,0,0,0,0,14,15,15,15,25,16,0,0,0,0,0,0,0,0,0,0,33,5,33,33,33,0,
0,0,0,0,29,0,0,0,0,0,0,0,0,0,0,0,0,0,0,0,0,0,0,0,0,0,0,0,14,25,15,15,15,16,0,0,0,0,0,0,0,0,0,0,33,33,11,33,11,0,
0,0,0,0,29,0,0,0,0,0,0,0,0,0,0,0,0,0,0,8,9,9,9,9,10,0,0,0,20,21,21,21,21,22,0,0,0,0,0,0,0,0,0,0,33,33,33,33,33,0,
0,0,0,0,35,0,0,0,0,0,0,0,0,0,0,0,0,0,0,14,15,15,15,25,16,0,0,0,27,27,27,27,27,27,0,0,8,9,9,9,10,0,0,0,33,33,33,33,33,0,
0,0,0,0,29,0,0,0,33,33,33,33,31,33,33,0,0,0,0,14,15,15,15,15,16,0,0,0,33,33,5,11,5,33,0,0,14,15,15,25,16,0,0,0,5,11,33,31,11,0,
0,0,0,0,29,0,0,33,33,33,33,33,33,33,33,33,33,31,0,20,21,21,21,21,22,0,0,0,33,5,33,33,11,33,0,0,20,21,21,21,22,0,0,0,33,33,33,33,33,0,
0,0,0,0,29,0,0,33,5,33,33,5,33,33,33,33,33,33,33,27,27,27,27,27,27,0,0,0,33,13,33,33,13,5,0,0,27,27,27,27,13,0,0,0,5,33,33,11,33,0,
0,0,0,0,29,0,0,33,33,33,31,33,31,33,5,33,5,33,33,5,5,33,33,5,33,0,0,0,33,19,33,33,19,5,0,0,33,33,13,33,19,0,0,0,33,33,33,11,33,0,
0,0,0,0,29,0,0,33,31,33,33,33,33,33,33,33,33,31,33,33,13,33,31,13,33,0,0,0,33,5,11,33,33,33,0,0,33,5,19,5,5,18,0,0,13,31,33,33,31,0,
0,0,0,0,35,0,0,33,31,33,33,5,33,33,5,33,33,33,33,33,19,33,33,19,33,0,0,0,33,33,33,33,33,5,0,0,5,33,33,13,31,0,0,0,19,33,33,33,33,0,
0,0,0,0,29,0,0,33,33,33,33,33,0,0,33,31,33,31,33,33,5,33,33,5,33,0,0,0,33,31,33,33,33,33,0,0,33,31,33,19,33,0,0,0,33,33,11,11,33,0,
0,0,0,0,29,0,0,33,31,33,0,0,0,0,0,0,33,33,33,31,13,33,33,13,33,0,0,0,33,33,5,33,5,33,0,0,33,33,33,33,5,6,0,0,5,33,11,33,33,0,
0,0,0,0,29,0,0,33,33,33,0,0,0,0,0,0,0,33,33,33,19,31,33,19,33,0,0,0,31,33,13,13,33,33,0,0,5,33,13,33,33,0,0,0,5,5,33,33,5,0,
0,0,0,0,29,0,0,0,0,0,0,0,0,0,0,0,0,0,31,33,5,5,33,5,33,0,0,0,33,33,19,19,33,33,0,0,5,5,19,5,5,0,0,0,33,31,33,33,5,0,
0,0,0,0,29,0,0,0,0,0,0,0,0,0,0,0,0,0,33,33,33,33,33,33,33,0,0,0,33,5,33,33,5,33,0,0,31,33,33,33,33,0,0,0,33,33,33,11,5,0,
0,0,0,0,29,0,0,0,0,0,0,0,0,8,9,10,0,0,33,5,33,33,5,5,33,0,0,0,33,33,33,33,33,33,0,0,33,33,33,33,33,0,0,0,38,39,39,39,40,0,
0,0,0,0,29,0,0,8,9,9,9,9,9,15,15,16,0,0,33,5,13,31,33,13,33,0,0,0,33,11,33,5,33,33,0,0,33,5,33,33,33,0,0,8,9,9,9,9,9,10,
0,0,0,0,35,0,0,14,15,15,15,15,15,15,15,16,0,0,33,33,19,33,33,19,33,0,0,0,38,39,39,39,39,40,0,0,33,5,33,33,33,0,0,14,15,15,15,15,15,16,
0,0,0,0,29,0,0,20,21,21,21,21,21,21,21,22,0,0,33,33,33,33,33,31,33,0,0,0,8,9,9,9,9,10,0,0,33,33,33,33,33,0,0,14,15,15,15,15,25,16,
0,0,0,0,29,0,0,0,0,0,0,0,0,0,0,0,0,0,33,5,33,5,5,33,33,0,0,0,14,15,15,15,15,16,0,0,13,33,33,33,33,0,0,14,15,15,15,15,15,16,
0,0,0,0,29,0,0,0,0,0,0,0,0,0,0,0,0,0,33,33,33,11,11,33,33,0,0,0,14,15,15,15,15,16,0,0,19,33,31,33,33,0,0,20,21,21,21,21,21,22,
0,0,0,0,29,0,0,0,0,0,0,0,0,0,0,0,0,0,33,33,33,8,10,33,33,0,0,0,14,15,15,15,15,16,0,0,33,33,33,33,33,0,0,0,0,0,0,0,0,0,
0,0,0,0,35,0,0,0,0,0,0,0,0,0,0,0,0,0,33,33,33,14,16,33,33,0,0,0,14,15,15,15,15,16,0,0,33,33,33,33,33,0,0,0,0,0,0,0,0,0,
8,9,9,9,41,9,9,9,9,9,9,9,9,10,0,0,0,0,33,33,33,14,16,33,33,0,0,0,20,21,21,21,21,22,0,0,38,39,39,39,40,0,0,0,0,0,0,0,0,0,
14,25,15,15,15,15,15,15,15,15,15,15,25,16,0,0,0,0,38,39,39,14,16,39,40,0,0,0,0,0,0,0,0,0,0,0,0,0,0,0,0,0,0,0,0,0,0,0,0,0,
14,15,15,15,15,15,15,15,15,15,15,15,15,15,9,9,15,9,9,9,9,15,16,0,0,0,0,0,0,0,0,0,0,0,0,0,0,0,0,0,0,0,0,0,0,0,0,0,0,0,
14,15,15,15,15,15,15,15,15,15,15,15,15,15,21,21,21,21,21,21,21,21,22,0,0,0,0,0,0,0,0,0,0,0,0,0,0,0,0,0,0,0,0,0,0,0,0,0,0,0,
14,15,25,15,15,15,15,15,15,15,15,25,15,16,0,0,0,0,0,0,0,0,0,0,0,0,0,0,0,0,0,0,0,0,0,0,0,0,0,0,0,0,0,0,0,0,0,0,0,0,
20,21,21,21,21,21,21,21,21,21,21,21,21,22,0,0,0,0,0,0,0,0,0,0,0,0,0,0,0,0,0,0,0,0,0,0,0,0,0,0,0,0,0,0,0,0,0,0,0,0
</data>
 </layer>
 <layer id="7" name="Tile Layer 2" width="50" height="35">
  <data encoding="csv">
0,0,0,0,0,0,0,0,0,0,0,0,0,0,0,0,0,0,0,0,0,0,0,0,0,0,0,0,0,0,0,0,0,0,0,0,0,0,0,0,0,0,0,0,12,31,33,33,33,5,
0,0,0,0,0,0,0,0,0,0,0,0,0,0,0,0,0,0,0,0,0,0,0,0,0,0,0,0,0,0,0,0,0,0,0,0,0,0,0,0,0,0,0,0,33,33,33,33,33,0,
0,0,0,0,0,0,0,0,0,0,0,0,0,0,0,0,0,0,0,0,0,0,0,0,0,0,0,0,0,0,0,0,0,0,0,0,0,0,0,0,0,0,0,0,33,33,33,33,33,0,
0,0,0,0,0,0,0,0,0,0,0,0,0,0,0,0,0,0,0,0,0,0,0,0,0,0,0,0,0,0,0,0,0,0,0,0,0,0,0,0,0,0,0,0,33,0,0,0,33,0,
0,0,0,0,0,0,0,0,0,0,0,0,0,0,0,0,0,0,0,0,0,0,0,0,0,0,0,0,0,0,0,0,0,0,0,0,0,0,0,0,0,0,0,0,0,0,5,5,0,0,
0,0,0,0,0,0,0,0,0,0,0,0,0,0,0,0,0,0,0,0,0,0,0,0,0,0,0,0,0,0,0,0,0,0,0,0,0,0,0,0,0,0,0,0,0,0,0,0,0,0,
0,0,0,0,0,0,0,0,0,0,0,0,0,0,0,0,0,0,0,0,0,0,0,0,0,0,0,0,0,0,0,0,0,0,0,0,0,0,0,0,0,0,0,0,0,5,0,0,0,0,
0,0,0,0,0,0,0,0,0,0,0,0,0,0,0,0,0,0,0,0,0,0,0,0,0,0,0,0,0,0,0,0,0,0,0,0,0,0,0,0,0,0,0,0,0,0,0,0,0,0,
0,0,0,0,0,0,0,0,0,0,0,0,0,0,0,0,0,0,0,0,0,0,0,0,0,0,0,0,0,0,0,0,0,0,0,0,0,0,0,0,0,0,0,0,0,0,0,0,0,0,
0,0,0,0,0,0,0,0,0,0,0,0,0,0,0,0,0,0,0,0,0,0,0,0,0,0,0,0,0,0,6,0,0,6,0,0,0,0,0,0,0,0,0,0,0,0,0,0,0,0,
0,0,0,0,0,0,0,0,0,0,0,0,0,0,0,0,0,0,0,0,0,0,0,0,0,0,0,0,0,0,0,0,0,0,0,0,0,0,0,0,0,0,0,0,0,0,0,0,0,0,
0,0,0,0,0,0,0,0,0,0,0,0,0,0,0,0,0,0,0,0,0,0,0,0,0,0,0,0,0,0,0,0,0,0,0,0,0,0,0,0,0,0,0,0,0,0,0,0,0,0,
0,0,0,0,0,0,0,0,5,0,0,5,0,0,0,0,0,0,0,6,18,0,0,6,0,0,0,0,0,0,0,0,0,0,0,0,0,12,0,0,13,0,0,0,0,0,0,0,0,0,
0,0,0,0,0,0,0,0,0,0,0,0,0,0,5,0,5,0,0,0,0,0,0,0,0,0,0,0,0,0,0,0,0,0,0,0,0,0,0,0,0,0,0,0,0,0,0,0,0,0,
0,0,0,0,0,0,0,0,33,0,0,0,0,0,0,0,0,0,0,0,0,0,0,0,0,0,0,0,0,0,0,0,0,0,0,0,0,0,0,0,0,0,0,0,0,0,0,0,0,0,
0,0,0,0,0,0,0,0,0,0,0,5,0,0,5,0,0,0,0,0,0,0,0,0,0,0,0,0,0,0,0,0,0,0,0,0,0,0,0,0,0,0,0,0,0,0,0,0,0,0,
0,0,0,0,0,0,0,0,0,0,0,0,0,0,0,0,0,0,0,0,0,0,0,0,0,0,0,0,0,0,0,0,0,0,0,0,0,0,0,0,0,0,0,0,0,0,0,0,0,0,
0,0,0,0,0,0,0,0,31,0,0,0,0,0,0,0,0,0,0,0,0,0,0,0,0,0,0,0,0,0,0,0,0,0,0,0,0,0,0,5,0,0,0,0,0,0,0,0,0,0,
0,0,0,0,0,0,0,0,0,0,0,0,0,0,0,0,0,0,0,0,0,0,0,0,0,0,0,0,0,0,0,0,0,0,0,0,0,0,0,0,0,0,0,0,0,0,0,0,0,0,
0,0,0,0,0,0,0,0,0,0,0,0,0,0,0,0,0,0,0,0,0,0,0,0,0,0,0,0,0,0,0,0,0,0,0,0,0,0,0,0,0,0,0,0,0,0,0,0,0,0,
0,0,0,0,0,0,0,0,0,0,0,0,0,0,0,0,0,0,0,0,0,0,0,0,0,0,0,0,0,0,0,0,0,0,0,0,0,0,0,0,0,0,0,0,0,0,0,0,0,0,
0,0,0,0,0,0,0,0,0,0,0,0,0,0,37,0,0,0,0,0,0,0,0,0,0,0,0,0,0,0,0,0,0,0,0,0,0,5,0,0,5,0,0,0,0,0,0,0,0,0,
0,0,0,0,0,0,0,0,0,0,0,0,0,0,0,0,0,0,0,0,0,0,0,0,0,0,0,0,0,0,0,0,0,0,0,0,0,0,0,0,0,0,0,0,0,0,0,0,0,0,
0,0,0,0,0,0,0,0,0,0,0,0,0,0,0,0,0,0,0,0,0,0,0,0,0,0,0,0,0,0,0,0,0,0,0,0,0,0,0,0,0,0,0,0,0,44,45,46,0,0,
0,0,0,0,0,0,0,0,0,0,0,0,0,0,0,0,0,0,0,0,0,0,0,0,0,0,0,0,0,0,0,0,0,0,0,0,0,5,0,5,0,0,0,0,0,50,51,52,0,0,
0,0,0,0,0,0,0,0,0,0,0,0,0,0,0,0,0,0,0,0,0,0,0,0,0,0,0,0,0,0,0,0,0,0,0,0,0,0,0,0,0,0,0,0,0,56,57,58,0,0,
0,0,0,0,0,0,0,0,0,0,0,0,0,0,0,0,0,0,0,0,0,0,0,0,0,0,0,0,0,0,0,0,0,0,0,0,0,0,0,0,0,0,0,0,0,0,0,0,0,0,
0,0,0,0,0,0,0,0,0,0,0,0,0,0,0,0,0,0,0,0,0,0,0,0,0,0,0,0,0,0,0,0,0,0,0,0,0,0,0,0,0,0,0,0,0,0,0,0,0,0,
0,0,0,0,0,0,0,0,0,0,0,0,0,0,0,0,0,0,0,0,0,0,0,0,0,0,0,0,0,0,0,0,0,0,0,0,5,5,5,0,0,0,0,0,0,0,0,0,0,0,
0,0,0,0,0,0,0,0,0,0,0,0,0,0,0,0,0,0,0,0,0,0,0,0,0,0,0,0,0,0,0,0,0,0,0,0,0,0,0,0,0,0,0,0,0,0,0,0,0,0,
0,0,0,0,0,44,45,46,0,0,0,0,0,0,0,0,0,0,0,0,0,0,0,0,0,0,0,0,0,0,0,0,0,0,0,0,0,0,0,0,0,0,0,0,0,0,0,0,0,0,
0,0,0,0,0,50,51,52,0,0,0,0,0,0,0,0,9,0,0,0,0,0,0,0,0,0,0,0,0,0,0,0,0,0,0,0,0,0,0,0,0,0,0,0,0,0,0,0,0,0,
0,0,0,0,0,56,57,58,0,0,0,0,0,0,0,0,0,0,0,0,0,0,0,0,0,0,0,0,0,0,0,0,0,0,0,0,0,0,0,0,0,0,0,0,0,0,0,0,0,0,
0,0,0,0,0,0,0,0,0,0,0,0,0,0,0,0,0,0,0,0,0,0,0,0,0,0,0,0,0,0,0,0,0,0,0,0,0,0,0,0,0,0,0,0,0,0,0,0,0,0,
0,0,0,0,0,0,0,0,0,0,0,0,0,0,0,0,0,0,0,0,0,0,0,0,0,0,0,0,0,0,0,0,0,0,0,0,0,0,0,0,0,0,0,0,0,0,0,0,0,0
</data>
 </layer>
 <objectgroup color="#ff55ff" id="2" name="objects">
  <object id="32" name="slidearea" x="160" y="0" width="40" height="1160"/>
  <object id="67" name="climbentry" x="840" y="1080" width="40" height="40">
   <properties>
    <property name="target" type="object" value="83"/>
   </properties>
  </object>
  <object id="68" name="climbentry" x="880" y="1080" width="40" height="40">
   <properties>
    <property name="target" type="object" value="84"/>
   </properties>
  </object>
  <object id="83" name="climbexit" x="840" y="1040" width="40" height="40">
   <properties>
    <property name="target" type="object" value="85"/>
   </properties>
  </object>
  <object id="84" name="climbexit" x="880" y="1040" width="40" height="40">
   <properties>
    <property name="target" type="object" value="85"/>
   </properties>
  </object>
  <object id="86" name="climbarea" x="840" y="1000" width="80" height="121.5"/>
  <object id="106" name="climbarea" x="760" y="840" width="40" height="80"/>
  <object id="108" name="climbarea" x="880" y="840" width="40" height="40"/>
  <object id="109" name="climbarea" x="920" y="840" width="40" height="40"/>
  <object id="111" name="climbarea" x="920" y="760" width="40" height="40"/>
  <object id="112" name="climbarea" x="800" y="760" width="80" height="40"/>
  <object id="113" name="climbarea" x="800" y="640" width="40" height="40"/>
  <object id="114" name="climbarea" x="920" y="640" width="40" height="40"/>
  <object id="116" name="climbarea" x="760" y="480" width="80" height="80"/>
  <object id="117" name="climbarea" x="920" y="480" width="40" height="80"/>
  <object id="118" name="climbexit" x="760" y="480" width="40" height="40">
   <properties>
    <property name="target" type="object" value="126"/>
   </properties>
  </object>
  <object id="119" name="climbexit" x="800" y="480" width="40" height="40">
   <properties>
    <property name="target" type="object" value="128"/>
   </properties>
  </object>
  <object id="120" name="climbexit" x="920" y="480" width="40" height="40">
   <properties>
    <property name="target" type="object" value="127"/>
   </properties>
  </object>
  <object id="121" name="climbentry" x="760" y="440" width="40" height="40">
   <properties>
    <property name="target" type="object" value="118"/>
   </properties>
  </object>
  <object id="124" name="climbentry" x="800" y="440" width="40" height="40">
   <properties>
    <property name="target" type="object" value="119"/>
   </properties>
  </object>
  <object id="125" name="climbentry" x="920" y="440" width="40" height="40">
   <properties>
    <property name="target" type="object" value="120"/>
   </properties>
  </object>
  <object id="146" name="climbarea" x="640" y="520" width="40" height="40"/>
  <object id="147" name="climbarea" x="560" y="520" width="40" height="40"/>
  <object id="148" name="climbarea" x="440" y="600" width="40" height="40"/>
  <object id="149" name="climbarea" x="560" y="600" width="40" height="40"/>
  <object id="150" name="climbarea" x="440" y="480" width="40" height="40"/>
  <object id="151" name="climbarea" x="320" y="480" width="40" height="40"/>
  <object id="154" name="climblanding" x="320" y="960" width="40" height="40"/>
  <object id="159" name="fallingclimbarea" gid="6" x="320" y="720" width="40" height="40">
   <properties>
    <property name="timed" type="bool" value="true"/>
   </properties>
  </object>
  <object id="161" name="fallingclimbarea" gid="12" x="320" y="600" width="40" height="40"/>
  <object id="177" name="script" x="547" y="840" width="64.5" height="64">
   <properties>
    <property name="cutscene" value="climb.chest"/>
   </properties>
  </object>
  <object id="181" gid="2" x="320" y="1160" width="40" height="40"/>
  <object id="182" gid="4" x="360" y="1160" width="40" height="40"/>
  <object id="183" gid="2" x="320" y="1120" width="40" height="40"/>
  <object id="184" gid="2" x="320" y="1080" width="40" height="40"/>
  <object id="185" gid="2" x="320" y="1040" width="40" height="40"/>
  <object id="186" gid="4" x="360" y="1120" width="40" height="40"/>
  <object id="187" gid="4" x="360" y="1080" width="40" height="40"/>
  <object id="188" gid="4" x="360" y="1040" width="40" height="40"/>
  <object id="198" name="interactable" x="555" y="840" width="49" height="49.5">
   <properties>
    <property name="text1" value="* (It's still locked.)"/>
    <property name="text2" value="* (What did you think was gonna happen?)"/>
   </properties>
  </object>
  <object id="199" name="climbmover" x="1040" y="520" width="40" height="40">
   <properties>
    <property name="target" type="object" value="204"/>
   </properties>
  </object>
  <object id="202" name="climbmover" x="360" y="160" width="40" height="40">
   <properties>
    <property name="one_way" type="bool" value="true"/>
    <property name="target" type="object" value="205"/>
   </properties>
  </object>
  <object id="206" name="climbmover" x="40" y="960" width="40" height="40">
   <properties>
    <property name="one_way" type="bool" value="true"/>
    <property name="target" type="object" value="207"/>
   </properties>
  </object>
  <object id="208" name="climbmover" x="1400" y="40" width="40" height="40">
   <properties>
    <property name="one_way" type="bool" value="true"/>
    <property name="target" type="object" value="209"/>
   </properties>
  </object>
  <object id="233" name="npc" x="480" y="1200">
   <properties>
    <property name="actor" value="cuptain"/>
    <property name="text1" value="* Th-the princess![wait:5] She's in trouble!"/>
    <property name="text2" value="* Please heroes,[wait:5] help us!"/>
    <property name="turn" type="bool" value="true"/>
   </properties>
   <point/>
  </object>
  <object id="234" name="climbarea" x="1200" y="360" width="40" height="80"/>
  <object id="235" name="climbentry" x="1200" y="320" width="40" height="40">
   <properties>
    <property name="target" type="object" value="237"/>
   </properties>
  </object>
  <object id="237" name="climbexit" x="1200" y="360" width="40" height="40">
   <properties>
    <property name="target" type="object" value="236"/>
   </properties>
  </object>
  <object id="239" name="climblanding" x="1120" y="1120" width="240" height="40"/>
  <object id="241" name="climbmover" x="1680" y="960" width="40" height="40">
   <properties>
    <property name="one_way" type="bool" value="true"/>
    <property name="target" type="object" value="243"/>
   </properties>
  </object>
  <object id="244" name="fallingclimbarea" gid="6" x="1520" y="200" width="40" height="40">
   <properties>
    <property name="timed" type="bool" value="true"/>
   </properties>
  </object>
  <object id="245" name="climbarea" x="1320" y="600" width="40" height="40"/>
  <object id="246" name="climbarea" x="1440" y="600" width="40" height="40"/>
  <object id="247" name="climbarea" x="1480" y="560" width="40" height="40"/>
  <object id="248" name="climbarea" x="1480" y="480" width="40" height="40"/>
  <object id="249" name="climbarea" x="1560" y="560" width="120" height="40"/>
  <object id="250" name="climbarea" x="1560" y="680" width="120" height="40"/>
  <object id="251" name="climbarea" x="1560" y="760" width="80" height="40"/>
  <object id="252" name="climbarea" x="1440" y="760" width="80" height="40"/>
  <object id="253" name="climbarea" x="1440" y="720" width="40" height="40"/>
  <object id="254" name="climbarea" x="1600" y="840" width="40" height="40"/>
  <object id="255" name="climbarea" x="1480" y="840" width="40" height="160"/>
  <object id="257" name="climbarea" x="1560" y="960" width="40" height="40"/>
  <object id="258" name="climbarea" x="1440" y="1120" width="120" height="40"/>
  <object id="259" name="climbarea" x="1440" y="1040" width="40" height="40"/>
  <object id="261" name="climbarea" x="1480" y="480" width="40" height="40"/>
  <object id="262" name="climbentry" x="1480" y="440" width="40" height="40">
   <properties>
    <property name="target" type="object" value="263"/>
   </properties>
  </object>
  <object id="263" name="climbexit" x="1480" y="480" width="40" height="40">
   <properties>
    <property name="target" type="object" value="264"/>
   </properties>
  </object>
  <object id="265" name="fallingclimbarea" gid="6" x="1120" y="560" width="40" height="40">
   <properties>
    <property name="timed" type="bool" value="true"/>
   </properties>
  </object>
  <object id="266" name="climbarea" x="1280" y="680" width="40" height="40"/>
  <object id="267" name="climbarea" x="1200" y="680" width="40" height="40"/>
  <object id="268" name="climbarea" x="1280" y="800" width="40" height="40"/>
  <object id="269" name="climbarea" x="1240" y="880" width="40" height="40"/>
  <object id="270" name="climbarea" x="1160" y="880" width="40" height="40"/>
  <object id="271" name="climbarea" x="1160" y="800" width="40" height="40"/>
  <object id="272" name="climbarea" x="1160" y="560" width="80" height="40"/>
  <object id="273" name="climbarea" x="1160" y="440" width="40" height="40"/>
  <object id="275" name="climbarea" x="1280" y="400" width="40" height="80"/>
  <object id="276" name="climbarea" x="1240" y="400" width="40" height="40"/>
  <object id="277" name="climbentry" x="1240" y="960" width="40" height="12.6667">
   <properties>
    <property name="target" type="object" value="278"/>
   </properties>
  </object>
  <object id="278" name="climbexit" x="1240" y="880" width="40" height="40">
   <properties>
    <property name="target" type="object" value="279"/>
   </properties>
  </object>
  <object id="280" name="script" x="1600" y="360" width="40" height="120">
   <properties>
    <property name="cutscene" value="hint.window"/>
   </properties>
  </object>
  <object id="281" name="climbentry" x="1320" y="320" width="40" height="40">
   <properties>
    <property name="target" type="object" value="282"/>
   </properties>
  </object>
  <object id="282" name="climbexit" x="1320" y="360" width="40" height="40">
   <properties>
    <property name="target" type="object" value="283"/>
   </properties>
  </object>
  <object id="284" name="climbarea" x="1320" y="480" width="40" height="80"/>
  <object id="285" name="climbarea" x="1320" y="360" width="40" height="40"/>
  <object id="296" name="transition" x="1440" y="1040" width="40" height="18">
   <properties>
    <property name="map" value="seth_may"/>
    <property name="marker" value="window_in"/>
    <property name="player_state" value="CLIMB"/>
   </properties>
  </object>
  <object id="299" name="climbmover" x="1640" y="840" width="40" height="40">
   <properties>
    <property name="target" type="object" value="300"/>
   </properties>
  </object>
  <object id="302" name="climbmover" x="1080" y="840" width="40" height="40">
   <properties>
    <property name="target" type="object" value="303"/>
   </properties>
  </object>
  <object id="306" name="savepoint" x="-120" y="1200">
   <properties>
    <property name="text1" value="* The feeling of this SAVE point being here for my sanity fills you with PITY."/>
   </properties>
   <point/>
  </object>
  <object id="412" name="climbentry" x="1880" y="880" width="40" height="12.6667">
   <properties>
    <property name="target" type="object" value="413"/>
   </properties>
  </object>
  <object id="413" name="climbexit" x="1880" y="800" width="40" height="40">
   <properties>
    <property name="target" type="object" value="408"/>
   </properties>
  </object>
  <object id="415" name="climbshooter" x="800" y="699.75" width="40" height="40">
   <properties>
    <property name="shoot_speed" type="int" value="80"/>
   </properties>
  </object>
  <object id="416" name="climbshooter" x="919.5" y="574.25" width="40" height="40"/>
  <object id="418" name="climbshooter" x="1240" y="738.875" width="40" height="40"/>
  <object id="419" name="climbshooter" x="1199.88" y="738.875" width="40" height="40"/>
  <object id="421" name="climbshooter" x="1560" y="615.333" width="40" height="40">
   <properties>
    <property name="shoot_speed" type="int" value="30"/>
   </properties>
  </object>
  <object id="422" name="climbshooter" x="1599.33" y="493.333" width="40" height="40">
   <properties>
    <property name="shoot_speed" type="int" value="30"/>
    <property name="timer_offset" type="int" value="15"/>
   </properties>
  </object>
  <object id="426" x="940" y="1233.33"/>
  <object id="431" name="climbarea" x="760" y="1000" width="40" height="40"/>
  <object id="432" name="climbmover" x="1720" y="240" width="40" height="40">
   <properties>
    <property name="target" type="object" value="433"/>
   </properties>
  </object>
  <object id="434" name="climbshooter" x="1799.67" y="139.333" width="40" height="40">
   <properties>
    <property name="shoot_speed" type="int" value="20"/>
   </properties>
  </object>
  <object id="435" name="climbarea" x="1760" y="680" width="40" height="40"/>
  <object id="436" name="climbarea" x="1760" y="720" width="80" height="40"/>
  <object id="437" name="climbarea" x="1920" y="720" width="40" height="120"/>
  <object id="438" name="climbarea" x="1840" y="640" width="40" height="80"/>
  <object id="439" name="climbarea" x="1880" y="640" width="40" height="40"/>
  <object id="440" name="climbarea" x="1880" y="480" width="40" height="80"/>
  <object id="441" name="climbarea" x="1760" y="480" width="40" height="40"/>
  <object id="442" name="climbarea" x="1760" y="400" width="80" height="40"/>
  <object id="443" name="climbarea" x="1920" y="400" width="40" height="40"/>
  <object id="444" name="climbarea" x="1840" y="280" width="40" height="40"/>
  <object id="445" name="climbarea" x="1920" y="280" width="40" height="40"/>
  <object id="446" name="climbarea" x="1800" y="240" width="40" height="40"/>
  <object id="447" name="climbarea" x="1840" y="160" width="40" height="40"/>
  <object id="448" name="climbarea" x="1880" y="160" width="40" height="40"/>
  <object id="451" name="climbarea" x="1880" y="800" width="40" height="40"/>
  <object id="452" name="climbarea" x="1760" y="-40" width="40" height="80"/>
  <object id="454" name="climbarea" x="1960" y="0" width="40" height="40"/>
  <object id="455" name="climbarea" x="1840" y="-40" width="160" height="40"/>
  <object id="456" name="climbarea" x="1640" y="0" width="40" height="160"/>
  <object id="457" name="climbmover" x="1600" y="40" width="40" height="40">
   <properties>
    <property name="one_way" type="bool" value="true"/>
    <property name="target" type="object" value="458"/>
   </properties>
  </object>
  <object id="460" name="script" x="724" y="1000" width="23.25" height="40">
   <properties>
    <property name="cutscene" value="troll.mover"/>
   </properties>
  </object>
  <object id="461" name="script" x="920" y="520" width="40" height="40">
   <properties>
    <property name="cutscene" value="troll2.mover"/>
   </properties>
  </object>
  <object id="463" name="climbmover" x="1000" y="520" width="40" height="40">
   <properties>
    <property name="target" type="object" value="465"/>
   </properties>
  </object>
  <object id="466" name="climbmover" x="1440" y="-40" width="40" height="40">
   <properties>
    <property name="exit" type="object" value="469"/>
    <property name="one_way" type="bool" value="true"/>
    <property name="target" type="object" value="467"/>
   </properties>
  </object>
  <object id="472" name="transition" x="1640" y="-57.75" width="40" height="40">
   <properties>
    <property name="map" value="climb_entry"/>
    <property name="marker" value="climb_trans_up"/>
    <property name="player_state" value="CLIMB"/>
   </properties>
  </object>
  <object id="474" name="climbarea" x="1640" y="-40" width="40" height="40"/>
  <object id="476" name="fallingclimbarea" gid="6" x="1880" y="120" width="40" height="40"/>
  <object id="477" name="fallingclimbarea" gid="6" x="1800" y="120" width="40" height="40">
   <properties>
    <property name="timed" type="bool" value="true"/>
   </properties>
  </object>
  <object id="482" name="npc" x="1960" y="920">
   <properties>
    <property name="actor" value="cuptain"/>
    <property name="text1" value="* Just as a note![wait:5] It is IMPOSSIBLE to finish the last tower without taking damage!"/>
    <property name="text2" value="* Trust me![wait:5] I tried![wait:5} I am in IMMENSE pain right now!"/>
    <property name="text3" value="* FUCK MY TEXTBOX LIFE."/>
   </properties>
   <point/>
  </object>
 </objectgroup>
 <objectgroup color="#aa0000" id="16" name="resetable" class="objects"/>
 <layer id="14" name="Tile Layer 3" width="50" height="35">
  <data encoding="csv">
0,0,0,0,0,0,0,0,0,0,0,0,0,0,0,0,0,0,0,0,0,0,0,0,0,0,0,0,0,0,0,0,0,0,0,0,0,0,0,0,0,0,31,0,0,0,0,0,0,0,
0,0,0,0,0,0,0,0,0,0,0,0,0,0,0,0,0,0,0,0,0,0,0,0,0,0,0,0,0,0,0,0,0,0,0,0,0,0,0,0,0,0,0,0,0,0,0,0,0,0,
0,0,0,0,0,0,0,0,0,0,0,0,0,0,0,0,0,0,0,0,0,0,0,0,0,0,0,0,0,0,0,0,0,0,0,0,0,0,0,0,31,0,0,0,0,0,0,0,0,0,
0,0,0,0,0,0,0,0,0,0,0,0,0,0,0,0,0,0,0,0,0,0,0,0,0,0,0,0,0,0,0,0,0,0,0,0,0,0,0,0,0,0,0,0,0,0,0,0,0,0,
0,0,0,0,0,0,0,0,0,0,0,0,0,0,0,0,0,0,0,0,0,0,0,0,0,0,0,0,0,0,0,0,0,0,0,0,0,0,0,0,31,0,0,0,0,0,0,0,0,0,
0,0,0,0,0,0,0,0,0,0,0,0,0,0,0,0,0,0,0,0,0,0,0,0,0,0,0,0,0,0,0,0,0,0,0,0,0,0,0,0,0,0,0,0,0,0,0,0,0,0,
0,0,0,0,0,0,0,0,0,0,0,0,0,0,0,0,0,0,0,0,0,0,0,0,0,0,0,0,0,0,0,0,0,0,0,0,0,0,0,0,0,0,0,25,0,0,0,31,0,0,
0,0,0,0,0,0,0,0,0,0,0,0,0,0,0,0,0,0,0,0,0,0,0,0,0,0,0,0,0,0,0,0,0,0,0,0,0,0,0,0,0,0,0,0,0,0,0,0,0,0,
0,0,0,0,0,0,0,0,0,0,0,0,0,0,0,0,0,0,0,0,0,0,0,0,0,0,0,0,0,0,0,0,0,0,0,0,0,0,0,0,0,0,0,0,0,31,0,0,0,0,
0,0,0,0,0,0,0,0,0,0,0,0,0,0,0,0,0,0,0,0,0,0,0,0,0,0,0,0,0,0,0,0,0,0,0,0,0,0,0,0,0,0,0,0,0,0,0,0,0,0,
0,0,0,0,0,0,0,0,0,0,0,0,0,0,0,0,0,0,0,0,0,0,0,0,0,0,0,0,0,0,0,0,0,0,0,0,0,0,0,0,0,0,0,0,0,0,0,0,0,0,
0,0,0,0,0,0,0,0,0,0,0,0,0,0,0,0,0,0,0,0,0,0,0,0,0,0,0,0,0,0,0,0,0,0,0,0,0,0,0,0,0,0,0,0,0,0,0,0,0,0,
0,0,0,0,0,0,0,0,0,0,0,0,0,0,0,0,0,0,0,0,0,0,0,0,0,0,0,0,0,0,0,0,0,0,0,0,0,0,0,0,0,0,0,0,0,31,0,0,0,0,
0,0,0,0,0,0,0,0,0,0,0,0,0,0,0,0,0,0,0,0,0,0,0,0,0,0,0,0,0,0,0,0,0,0,0,0,0,0,0,0,0,0,0,0,0,0,0,0,0,0,
0,0,0,0,0,0,0,0,0,0,0,0,0,0,0,0,0,0,0,0,0,0,0,0,0,0,0,0,0,0,0,0,0,0,0,0,0,0,0,0,0,0,0,0,0,0,0,0,0,0,
0,0,0,0,0,0,0,0,0,0,0,0,0,0,0,0,0,0,0,0,0,0,0,0,0,0,0,0,0,0,0,0,0,0,0,0,0,0,0,0,0,0,0,0,0,0,0,0,0,0,
0,0,0,0,0,0,0,0,0,0,0,0,0,0,0,0,0,0,0,0,0,0,0,0,0,0,0,0,0,0,0,0,0,0,0,0,0,0,0,0,0,0,0,0,0,0,0,0,0,0,
0,0,0,0,0,0,0,0,0,0,0,0,0,0,0,0,0,0,0,0,0,0,0,0,0,0,0,0,0,0,0,0,0,0,0,0,0,0,0,0,0,0,0,0,0,0,0,0,0,0,
0,0,0,0,0,0,0,0,0,0,0,0,0,0,0,0,0,0,0,0,0,0,0,0,0,0,0,0,0,0,0,0,0,0,0,0,0,0,0,0,0,0,0,0,0,0,0,0,0,0,
0,0,0,0,0,0,0,0,0,0,0,0,0,0,0,0,0,0,0,0,0,0,0,0,0,0,0,0,0,0,0,0,0,0,0,0,0,0,0,0,0,0,0,0,0,0,0,0,0,0,
0,0,0,0,0,0,0,0,0,0,0,0,0,0,0,0,0,0,0,0,0,0,0,0,0,0,0,0,0,0,0,0,0,0,0,0,0,0,0,0,0,0,0,0,0,0,0,0,0,0,
0,0,0,0,0,0,0,0,0,0,0,0,0,0,0,0,0,0,0,0,0,0,0,0,0,0,0,0,0,0,0,0,0,0,0,0,0,0,0,0,0,0,0,0,0,0,0,0,0,0,
0,0,0,0,0,0,0,0,0,0,0,0,0,0,0,0,0,0,0,0,0,0,0,0,0,0,0,0,0,0,0,0,0,0,0,0,0,0,0,0,0,0,0,0,0,0,0,0,0,0,
0,0,0,0,0,0,0,0,0,0,0,0,0,0,0,0,0,0,0,0,0,0,0,0,0,0,0,0,0,0,0,0,0,0,0,0,0,0,0,0,0,0,0,0,0,0,0,0,0,0,
0,0,0,0,0,0,0,0,0,0,0,0,0,0,0,0,0,0,0,0,0,0,0,0,0,0,0,0,0,0,0,0,0,0,0,0,0,0,0,0,0,0,25,0,0,0,0,0,0,0,
0,0,0,0,0,0,0,0,0,0,0,0,0,0,0,0,0,0,0,0,0,0,0,0,0,0,0,0,0,0,0,0,0,0,0,0,0,0,0,0,0,0,0,0,0,0,0,0,0,0,
0,0,0,0,0,0,0,0,0,0,0,0,0,0,0,0,0,0,0,0,0,0,0,0,0,0,0,0,0,0,0,0,0,0,0,0,0,0,0,0,0,0,0,0,0,0,0,0,0,0,
0,0,0,0,0,0,0,0,0,0,0,0,0,0,0,0,0,0,0,0,0,0,0,0,0,0,0,0,0,0,0,0,0,0,0,0,0,0,0,0,0,0,0,0,0,0,0,0,0,0,
0,0,0,0,0,0,0,0,0,0,0,0,0,0,0,0,0,0,0,0,0,0,0,0,0,0,0,0,0,0,0,0,0,0,0,0,0,0,0,0,0,0,0,0,0,0,0,0,0,0,
0,0,0,0,0,0,0,0,0,0,0,0,0,0,0,0,0,0,0,0,0,0,0,0,0,0,0,0,0,0,0,0,0,0,0,0,0,0,0,0,0,0,0,0,0,0,0,0,0,0,
0,0,0,0,0,0,0,0,0,0,0,0,0,0,0,0,0,0,0,0,0,0,0,0,0,0,0,0,0,0,0,0,0,0,0,0,0,0,0,0,0,0,0,0,0,0,0,0,0,0,
0,0,0,0,0,0,0,0,0,0,0,0,0,0,0,0,0,0,0,0,0,0,0,0,0,0,0,0,0,0,0,0,0,0,0,0,0,0,0,0,0,0,0,0,0,0,0,0,0,0,
0,0,0,0,0,0,0,0,0,0,0,0,0,0,0,0,0,0,0,0,0,0,0,0,0,0,0,0,0,0,0,0,0,0,0,0,0,0,0,0,0,0,0,0,0,0,0,0,0,0,
0,0,0,0,0,0,0,0,0,0,0,0,0,0,0,0,0,0,0,0,0,0,0,0,0,0,0,0,0,0,0,0,0,0,0,0,0,0,0,0,0,0,0,0,0,0,0,0,0,0,
0,0,0,0,0,0,0,0,0,0,0,0,0,0,0,0,0,0,0,0,0,0,0,0,0,0,0,0,0,0,0,0,0,0,0,0,0,0,0,0,0,0,0,0,0,0,0,0,0,0
</data>
 </layer>
 <objectgroup color="#aaaaff" id="5" name="collision">
  <object id="17" x="200" y="0" width="40" height="1160"/>
  <object id="18" x="120" y="0" width="40" height="1160"/>
  <object id="19" x="0" y="1120" width="120" height="40"/>
  <object id="21" x="560" y="1160" width="40" height="80"/>
  <object id="22" x="600" y="1200" width="240" height="40"/>
  <object id="23" x="800" y="1080" width="40" height="120"/>
  <object id="24" x="920" y="1080" width="40" height="240"/>
  <object id="25" x="560" y="1320" width="360" height="40"/>
  <object id="28" x="560" y="1360" width="40" height="40"/>
  <object id="29" x="0" y="1400" width="560" height="40"/>
  <object id="30" x="-40" y="1160" width="40" height="240"/>
  <object id="66" x="840" y="1082.5" width="80" height="40"/>
  <object id="129" x="1000" y="320" width="40" height="160"/>
  <object id="130" x="760" y="280" width="240" height="40"/>
  <object id="131" x="720" y="320" width="40" height="160"/>
  <object id="136" x="760" y="480" width="240" height="40"/>
  <object id="139" x="280" y="840" width="240" height="40"/>
  <object id="141" x="240" y="880" width="40" height="120"/>
  <object id="144" x="640" y="840" width="40" height="160"/>
  <object id="145" x="520" y="800" width="120" height="40"/>
  <object id="164" x="320" y="1000" width="80" height="40"/>
  <object id="165" x="280" y="1000" width="40" height="40"/>
  <object id="166" x="400" y="1000" width="240" height="40"/>
  <object id="167" x="400" y="1120" width="160" height="40"/>
  <object id="169" x="240" y="1120" width="80" height="40"/>
  <object id="170" x="320" y="1120" width="80" height="40"/>
  <object id="174" x="400" y="1040" width="40" height="80"/>
  <object id="175" x="280" y="1040" width="40" height="80"/>
  <object id="178" x="560" y="840" width="40" height="43"/>
  <object id="210" x="1120" y="160" width="240" height="40"/>
  <object id="211" x="1360" y="200" width="40" height="160"/>
  <object id="212" x="1080" y="200" width="40" height="160"/>
  <object id="215" x="1120" y="360" width="80" height="40"/>
  <object id="216" x="1240" y="360" width="80" height="40"/>
  <object id="286" x="1360" y="960" width="40" height="240"/>
  <object id="287" x="1120" y="920" width="240" height="40"/>
  <object id="288" x="1080" y="960" width="40" height="240"/>
  <object id="289" x="1120" y="1200" width="240" height="40"/>
  <object id="290" x="1640" y="360" width="40" height="120"/>
  <object id="291" x="1440" y="320" width="200" height="40"/>
  <object id="292" x="1400" y="360" width="40" height="120"/>
  <object id="293" x="1440" y="480" width="40" height="40"/>
  <object id="294" x="1520" y="480" width="120" height="40"/>
  <object id="478" x="1720" y="840" width="280" height="40"/>
  <object id="479" x="1680" y="880" width="40" height="200"/>
  <object id="480" x="1720" y="1080" width="280" height="40"/>
  <object id="481" x="2000" y="880" width="40" height="200"/>
 </objectgroup>
 <objectgroup color="#8d8d8d" id="12" name="controllers">
  <object id="172" name="toggle" x="400" y="960">
   <properties>
    <property name="flag" value="!troll"/>
    <property name="target" type="object" value="164"/>
   </properties>
   <point/>
  </object>
  <object id="173" name="toggle" x="300.5" y="1189.5">
   <properties>
    <property name="flag" value="!troll"/>
    <property name="target" type="object" value="170"/>
   </properties>
   <point/>
  </object>
  <object id="189" name="toggle" x="462" y="1063">
   <properties>
    <property name="flag" value="troll"/>
    <property name="target" type="object" value="187"/>
   </properties>
   <point/>
  </object>
  <object id="190" name="toggle" x="460.5" y="1019.5">
   <properties>
    <property name="flag" value="troll"/>
    <property name="target" type="object" value="188"/>
   </properties>
   <point/>
  </object>
  <object id="191" name="toggle" x="261" y="1141">
   <properties>
    <property name="flag" value="troll"/>
    <property name="target" type="object" value="181"/>
   </properties>
   <point/>
  </object>
  <object id="192" name="toggle" x="256.5" y="1099.5">
   <properties>
    <property name="flag" value="troll"/>
    <property name="target" type="object" value="183"/>
   </properties>
   <point/>
  </object>
  <object id="193" name="toggle" x="259.5" y="1061">
   <properties>
    <property name="flag" value="troll"/>
    <property name="target" type="object" value="184"/>
   </properties>
   <point/>
  </object>
  <object id="194" name="toggle" x="267.5" y="1020.5">
   <properties>
    <property name="flag" value="troll"/>
    <property name="target" type="object" value="185"/>
   </properties>
   <point/>
  </object>
  <object id="195" name="toggle" x="461.5" y="1101.5">
   <properties>
    <property name="flag" value="troll"/>
    <property name="target" type="object" value="186"/>
   </properties>
   <point/>
  </object>
  <object id="196" name="toggle" x="464.5" y="1142">
   <properties>
    <property name="flag" value="troll"/>
    <property name="target" type="object" value="182"/>
   </properties>
   <point/>
  </object>
  <object id="462" name="toggle" x="1000" y="520">
   <properties>
    <property name="flag" value="mover_troll"/>
    <property name="target" type="object" value="461"/>
   </properties>
   <point/>
  </object>
  <object id="464" name="toggle" x="1040" y="520">
   <properties>
    <property name="flag" value="mover_spawn"/>
    <property name="target" type="object" value="463"/>
   </properties>
   <point/>
  </object>
  <object id="470" name="toggle" x="1080" y="440">
   <properties>
    <property name="flag" value="!post_mayseth"/>
    <property name="target" type="object" value="199"/>
   </properties>
   <point/>
  </object>
  <object id="471" name="toggle" x="1560" y="40">
   <properties>
    <property name="flag" value="!mover_spawn"/>
    <property name="target" type="object" value="457"/>
   </properties>
   <point/>
  </object>
 </objectgroup>
 <objectgroup color="#862266" id="6" name="markers">
  <object id="34" name="entry" x="180" y="24.5">
   <properties>
    <property name="player_state" value="SLIDE"/>
   </properties>
   <point/>
  </object>
  <object id="85" x="880" y="1162.5">
   <point/>
  </object>
  <object id="126" x="780" y="412.75">
   <point/>
  </object>
  <object id="127" x="940.75" y="408.25">
   <point/>
  </object>
  <object id="128" x="820" y="413">
   <point/>
  </object>
  <object id="204" x="360" y="40" width="40" height="40"/>
  <object id="205" x="0" y="960" width="40" height="40"/>
  <object id="207" x="1440" y="40" width="40" height="40"/>
  <object id="209" x="1080" y="520" width="40" height="40"/>
  <object id="236" x="1219.25" y="298.75">
   <point/>
  </object>
  <object id="243" x="1520" y="200" width="40" height="40"/>
  <object id="264" x="1501" y="415">
   <point/>
  </object>
  <object id="279" x="1258" y="1027.33">
   <point/>
  </object>
  <object id="283" x="1338.67" y="298.667">
   <point/>
  </object>
  <object id="298" name="window_out" x="1440" y="1120" width="40" height="40">
   <properties>
    <property name="player_state" value="CLIMB"/>
   </properties>
  </object>
  <object id="300" x="1080" y="920" width="40" height="40"/>
  <object id="301" x="1164.5" y="1024.5">
   <point/>
  </object>
  <object id="303" x="1560" y="1080" width="40" height="40"/>
  <object id="308" name="spawn" x="260" y="1255.33">
   <point/>
  </object>
  <object id="408" x="1900.33" y="945.333">
   <point/>
  </object>
  <object id="433" x="1920" y="0" width="40" height="40"/>
  <object id="458" x="680" y="1000" width="40" height="40"/>
  <object id="465" x="1640" y="160" width="40" height="40"/>
  <object id="467" x="1840" y="1080" width="40" height="40"/>
  <object id="468" name="cutscene_exit" x="1440" y="-40" width="40" height="40">
   <properties>
    <property name="player_state" value="CLIMB"/>
   </properties>
  </object>
  <object id="469" x="1860.06" y="974.788">
   <point/>
  </object>
  <object id="475" name="climb_trans_down" x="1640" y="0" width="40" height="40">
   <properties>
    <property name="player_state" value="CLIMB"/>
   </properties>
  </object>
 </objectgroup>
 <objectgroup id="13" name="objects_party"/>
</map>
