<?xml version="1.0" encoding="UTF-8"?>
<map version="1.11" tiledversion="1.12.2" orientation="orthogonal" renderorder="right-down" width="16" height="12" tilewidth="40" tileheight="40" infinite="0" nextlayerid="6" nextobjectid="61">
 <editorsettings>
  <export target="example_map.lua" format="lua"/>
 </editorsettings>
 <properties>
  <property name="music" value="Who Might You Be"/>
 </properties>
 <tileset firstgid="1" source="../tilesets/castle.tsx"/>
 <layer id="1" name="Tile Layer 1" width="16" height="12">
  <data encoding="csv">
33,31,33,33,33,31,33,33,33,33,33,33,31,33,33,33,
38,39,39,39,39,39,39,39,39,39,39,39,39,39,39,40,
15,15,15,15,15,15,15,15,15,15,15,15,15,15,15,15,
15,15,15,15,15,15,15,15,15,15,15,15,15,15,15,15,
15,15,15,15,15,15,15,15,15,15,15,15,15,15,15,15,
15,15,15,15,15,15,15,15,15,15,15,15,15,15,15,15,
15,15,15,15,15,15,15,15,15,15,15,15,15,15,15,15,
15,15,15,15,15,15,15,15,15,15,15,15,15,15,15,15,
15,15,15,15,15,15,15,15,15,15,15,15,15,15,15,15,
26,27,27,27,27,27,27,27,27,27,27,28,15,15,26,27,
32,33,33,31,33,33,33,33,31,33,33,34,15,15,32,31,
32,31,33,33,33,33,31,33,33,33,33,34,15,15,32,33
</data>
 </layer>
 <layer id="5" name="Tile Layer 2" width="16" height="12" offsetx="20.4545" offsety="42.1818">
  <data encoding="csv">
0,0,0,0,0,0,0,0,0,0,0,0,0,0,0,0,
0,0,0,0,0,0,0,0,0,0,0,0,0,0,0,0,
0,0,0,0,0,0,0,0,0,0,0,0,0,0,0,0,
0,0,0,0,0,0,44,45,46,0,0,0,0,0,0,0,
0,0,0,0,0,0,50,51,52,0,0,0,0,0,0,0,
0,0,0,0,0,0,56,57,58,0,0,0,0,0,0,0,
0,0,0,0,0,0,0,0,0,0,0,0,0,0,0,0,
0,0,0,0,0,0,0,0,0,0,0,0,0,0,0,0,
0,0,0,0,0,0,0,0,0,0,0,0,0,0,0,0,
0,0,0,0,0,0,0,0,0,0,0,0,0,0,0,0,
0,0,0,0,0,0,0,0,0,0,0,0,0,0,0,0,
0,0,0,0,0,0,0,0,0,0,0,0,0,0,0,0
</data>
 </layer>
 <objectgroup color="#5500ff" id="2" name="markers">
  <object id="3" name="spawn" x="320" y="280">
   <point/>
  </object>
  <object id="52" name="entry" x="521" y="415.667">
   <point/>
  </object>
 </objectgroup>
 <objectgroup color="#5555ff" id="3" name="collision">
  <object id="28" x="-40" y="80" width="40" height="320"/>
  <object id="29" x="0" y="360" width="478" height="40"/>
  <object id="30" x="640" y="80" width="40" height="280"/>
  <object id="31" x="0" y="40" width="640" height="40"/>
  <object id="46" x="560" y="360" width="40" height="120"/>
  <object id="47" x="560" y="360" width="80" height="40"/>
  <object id="48" x="440" y="400" width="37.625" height="80"/>
 </objectgroup>
 <objectgroup color="#ff55ff" id="4" name="objects">
  <object id="32" name="chest" x="280" y="425">
   <properties>
    <property name="money" value="999"/>
   </properties>
   <point/>
  </object>
  <object id="34" name="interactable" x="-1.71212" y="296" width="12.5" height="63.3788">
   <properties>
    <property name="text1">* There's a sign![wait:5] Yep.[wait:5] 
It's a cool sign with cool text that's totally awesome.</property>
    <property name="text2">[voice:susie][face:susie/smile]* Hey,[wait:5] that's a pretty 
cool sign!</property>
    <property name="text3">[voice:ralsei][face:ralsei/smile]* Yes![wait:5] I love the 
signey-ness of it!</property>
    <property name="text4">[voice:susie][face:susie/surprise_smile]* Hey,[wait:5] look![wait:5] 
There's another!</property>
    <property name="text5">[voice:susie][face:susie/smile]* Heh,[wait:5] let's see what 
this one sa[next]</property>
    <property name="text6" value="[voice:susie][face:susie/suspicious] * ..."/>
    <property name="text7">[voice:susie][face:susie/sus_nervous]* Kris,[wait:5] 
* let's uh...[wait:5] 
* go.</property>
   </properties>
  </object>
  <object id="36" name="savepoint" x="520" y="200">
   <point/>
  </object>
  <object id="37" name="room_center" x="320" y="200">
   <point/>
  </object>
  <object id="44" name="npc" x="-40" y="120">
   <properties>
    <property name="actor" value="sans"/>
    <property name="turn" type="bool" value="true"/>
   </properties>
   <point/>
  </object>
  <object id="49" name="transition" x="476" y="439" width="90" height="22">
   <properties>
    <property name="map" value="plaza"/>
    <property name="marker" value="entry"/>
    <property name="stairs" value="true"/>
   </properties>
  </object>
  <object id="53" name="interactable" x="-1.33333" y="77" width="13.5" height="80">
   <properties>
    <property name="text1" value="[voice:sans][face:sans/neutral]* heya kid."/>
    <property name="text2" value="[voice:sans][face:sans/look_left]* wanna join me in this wall? it's pretty cozy."/>
    <property name="text3">[voice:sans][face:sans/closed]* not a fan? 
ok suit yourself.</property>
   </properties>
  </object>
  <object id="54" name="script" x="287.818" y="96.3636" width="64.1818" height="43.2727">
   <properties>
    <property name="cutscene" value="examples.spin"/>
   </properties>
  </object>
  <object id="56" name="npc" x="320" y="120">
   <properties>
    <property name="actor" value="aqua"/>
    <property name="text1" value="[image:aquaf, 0, 0, 2, 2] Uuuuu! Kris! Let's play sometime, okay!!!"/>
   </properties>
   <point/>
  </object>
  <object id="59" name="interactable" x="200.5" y="352" width="157.5" height="20.5">
   <properties>
    <property name="text1" value="* Just perfectly out of reach"/>
    <property name="text2">[voice:susie][face:susie/teeth_smile]* Hey Kris,[wait:5]think Ralsei  
knows &quot;Pickaxe Fome&quot;?</property>
   </properties>
  </object>
 </objectgroup>
</map>
