<?xml version="1.0" encoding="UTF-8"?>
<map version="1.11" tiledversion="1.12.2" orientation="orthogonal" renderorder="right-down" width="55" height="19" tilewidth="40" tileheight="40" infinite="0" nextlayerid="7" nextobjectid="54">
 <editorsettings>
  <export target="plaza.lua" format="lua"/>
 </editorsettings>
 <properties>
  <property name="music" value="castletown"/>
 </properties>
 <tileset firstgid="1" source="../tilesets/castle.tsx"/>
 <layer id="1" name="Tile Layer 1" width="55" height="19">
  <data encoding="csv">
31,33,33,33,31,33,33,33,33,34,33,33,33,31,33,33,33,33,33,15,15,33,33,33,33,33,33,33,33,34,33,33,33,33,33,33,33,33,31,34,31,33,33,33,33,34,33,33,33,33,31,33,33,33,33,
33,33,31,33,33,33,33,33,31,34,33,33,31,33,33,33,31,33,33,15,15,33,33,31,33,33,33,31,33,34,33,33,33,33,33,31,33,33,33,34,33,33,33,33,31,34,33,31,33,33,33,33,33,33,33,
33,33,33,31,33,33,31,33,33,34,31,13,33,13,33,13,33,13,33,15,15,33,13,33,13,33,13,33,13,34,13,33,13,33,33,33,33,33,33,34,33,13,33,33,13,34,33,33,33,33,33,31,33,31,33,
13,33,13,33,13,33,13,33,13,34,33,19,33,19,33,19,33,19,33,2,4,33,19,33,19,33,19,33,19,34,19,33,19,33,15,15,15,15,15,34,33,19,33,31,19,34,33,13,33,13,33,13,33,13,31,
19,33,19,33,19,33,19,33,19,34,33,31,33,33,33,33,31,33,33,2,4,33,31,33,33,33,33,31,33,34,33,33,33,33,15,15,15,15,15,34,33,13,33,33,13,34,33,19,33,19,33,19,33,19,33,
31,33,33,31,33,31,33,33,33,34,38,39,39,39,39,39,39,39,39,2,4,39,39,39,39,39,39,39,39,40,33,33,33,33,15,15,15,15,15,34,33,19,33,33,19,34,33,33,31,33,33,33,33,33,33,
38,39,39,39,39,39,39,39,39,40,15,15,15,15,15,15,15,15,15,15,15,15,15,25,15,15,15,15,15,15,38,39,39,39,2,3,3,3,4,40,33,33,33,31,33,34,38,39,39,39,39,39,39,39,40,
14,15,15,15,15,15,15,15,15,15,15,15,25,15,15,15,15,15,15,15,15,15,15,15,15,15,15,15,15,15,15,15,15,15,15,15,15,15,15,15,31,33,33,33,33,34,15,15,15,15,15,15,15,25,15,
14,15,15,15,15,15,15,15,15,15,15,15,15,15,15,15,15,15,15,15,15,15,15,15,15,15,15,15,15,25,15,15,15,15,15,15,15,15,15,15,38,39,39,39,39,40,15,15,15,15,15,15,15,15,15,
14,15,15,15,15,25,15,15,15,15,15,15,15,15,15,15,15,15,15,15,15,15,15,15,15,15,15,15,15,15,15,15,15,15,15,15,15,15,15,15,15,15,25,15,15,15,15,15,15,15,15,15,15,15,15,
14,15,15,15,15,15,15,15,15,15,15,15,15,15,15,15,15,15,15,15,15,15,15,15,15,15,15,15,15,15,15,15,15,15,15,15,15,15,15,15,15,15,15,15,15,15,15,15,15,15,15,15,15,15,15,
14,15,15,15,15,15,15,15,15,15,15,15,15,15,15,15,15,15,15,15,15,15,15,15,15,15,15,15,15,15,15,15,15,15,15,15,25,15,15,15,15,15,15,15,15,15,15,15,25,15,26,27,27,27,27,
27,27,27,27,27,27,27,27,27,28,15,15,15,15,15,15,15,15,15,15,15,15,15,15,15,15,15,15,15,15,15,15,15,15,15,15,15,15,15,15,26,27,27,27,27,27,27,27,27,27,33,13,33,13,33,
31,13,33,13,33,13,33,13,33,34,15,15,15,15,15,15,15,15,15,15,15,15,15,15,15,15,25,15,15,15,15,15,15,15,15,15,15,15,15,15,32,13,33,13,31,13,33,13,31,13,33,19,33,19,33,
33,19,33,19,33,19,33,19,33,34,15,15,15,15,25,15,15,15,15,15,15,15,15,15,15,15,15,15,15,15,26,27,27,27,27,27,27,27,27,27,31,19,33,19,33,19,33,19,33,19,33,33,33,31,33,
33,33,33,33,33,33,31,33,31,33,27,27,27,27,27,27,27,27,27,27,27,27,27,27,27,27,27,27,27,27,13,33,13,33,13,33,13,33,13,33,33,13,33,13,33,13,33,13,33,13,33,13,33,13,33,
33,13,31,13,33,13,33,13,33,13,33,13,31,13,33,13,33,13,33,33,31,33,13,33,13,33,13,31,13,33,19,33,19,33,19,33,19,33,19,33,33,19,33,19,33,19,33,19,33,19,33,19,33,19,33,
33,19,33,19,33,19,33,19,33,19,33,19,33,19,33,19,33,19,31,33,33,33,19,33,19,33,19,33,19,33,33,31,33,33,33,33,33,33,33,33,33,31,33,33,33,33,33,33,33,31,33,33,31,33,33,
31,33,33,33,33,33,33,33,31,33,33,31,33,33,33,33,33,33,33,31,33,31,33,33,31,33,31,33,33,33,33,33,33,33,33,31,33,33,33,31,33,33,33,33,33,31,33,33,33,33,33,33,33,33,33
</data>
 </layer>
 <layer id="6" name="Tile Layer 2" width="55" height="19">
  <data encoding="csv">
0,0,0,0,0,0,0,0,0,0,0,0,0,0,0,0,0,0,0,0,0,0,0,0,0,0,0,0,0,0,0,0,0,0,0,0,0,0,0,0,0,0,0,0,0,0,0,0,0,0,0,0,0,0,0,
0,0,0,0,0,0,0,0,0,0,0,0,0,0,0,0,0,0,0,0,0,0,0,0,0,0,0,0,0,0,0,0,0,0,0,0,0,0,0,0,0,0,0,0,0,0,0,0,0,0,0,0,0,0,0,
0,0,0,0,0,0,0,0,0,0,0,0,0,0,0,0,0,0,0,0,0,0,0,0,0,0,0,0,0,0,0,0,0,0,0,0,0,0,0,0,0,0,0,0,0,0,0,0,0,0,0,0,0,0,0,
0,0,0,0,0,0,0,0,0,0,0,0,0,0,0,0,0,0,0,0,0,0,0,0,0,0,0,0,0,0,0,0,0,0,0,0,0,0,0,0,0,0,0,0,0,0,0,0,0,0,0,0,0,0,0,
0,0,0,0,0,0,0,0,0,0,0,0,0,0,0,0,0,0,0,0,0,0,0,0,0,0,0,0,0,0,0,0,0,0,0,0,0,0,0,0,0,0,0,0,0,0,0,0,0,0,0,0,0,0,0,
0,0,0,0,0,0,0,0,0,0,0,0,0,0,0,0,0,0,0,0,0,0,0,0,0,0,0,0,0,0,0,0,0,0,0,0,0,0,0,0,0,0,0,0,0,0,0,0,0,0,0,0,0,0,0,
0,0,0,0,0,0,0,0,0,0,0,0,0,0,0,0,0,0,0,0,0,0,0,0,0,0,0,0,0,0,0,0,0,0,0,0,0,0,0,0,0,0,0,0,0,0,0,0,0,0,0,0,0,0,0,
0,0,0,60,0,0,0,0,0,0,0,0,0,0,0,0,0,0,0,0,0,0,0,0,0,0,0,0,0,0,0,0,0,0,0,0,0,0,0,0,0,0,0,0,0,0,0,0,0,0,0,0,0,0,0,
0,0,0,60,0,0,0,0,0,0,0,0,0,0,0,0,0,0,0,0,0,0,0,0,0,0,0,0,0,0,0,0,0,0,0,0,0,0,0,0,0,0,0,0,0,0,0,0,0,0,0,0,0,0,0,
0,0,0,60,0,0,0,0,0,0,0,0,0,0,44,45,46,0,0,0,0,0,0,44,45,46,0,0,0,0,0,0,0,0,0,0,0,0,0,0,0,0,0,0,0,0,0,0,0,0,0,0,0,0,0,
0,0,0,60,0,0,0,0,0,0,0,0,0,0,50,51,52,0,0,0,0,0,0,50,51,52,0,0,0,0,0,0,0,0,0,0,0,0,0,0,0,0,0,0,0,0,0,0,0,0,0,0,0,0,0,
0,0,0,60,0,0,0,0,0,0,0,0,0,0,56,57,58,0,0,0,0,0,0,56,57,58,0,0,0,0,0,0,0,0,0,0,0,0,0,0,0,0,0,0,0,0,0,0,0,0,0,0,0,0,0,
0,0,0,0,0,0,0,0,0,0,0,0,0,0,0,0,0,0,0,0,0,0,0,0,0,0,0,0,0,0,0,0,0,0,0,0,0,0,0,0,0,0,0,0,0,0,0,0,0,0,0,0,0,0,0,
0,0,0,0,0,0,0,0,0,0,0,0,0,0,0,0,0,0,0,0,0,0,0,0,0,0,0,0,0,0,0,0,0,0,0,0,0,0,0,0,0,0,0,0,0,0,0,0,0,0,0,0,0,0,0,
0,0,0,0,0,0,0,0,0,0,0,0,0,0,0,0,0,0,0,0,0,0,0,0,0,0,0,0,0,0,0,0,0,0,0,0,0,0,0,0,0,0,0,0,0,0,0,0,0,0,0,0,0,0,0,
0,0,0,0,0,0,0,0,0,0,0,0,0,0,0,0,0,0,0,0,0,0,0,0,0,0,0,0,0,0,0,0,0,0,0,0,0,0,0,0,0,0,0,0,0,0,0,0,0,0,0,0,0,0,0,
0,0,0,0,0,0,0,0,0,0,0,0,0,0,0,0,0,0,0,0,0,0,0,0,0,0,0,0,0,0,0,0,0,0,0,0,0,0,0,0,0,0,0,0,0,0,0,0,0,0,0,0,0,0,0,
0,0,0,0,0,0,0,0,0,0,0,0,0,0,0,0,0,0,0,0,0,0,0,0,0,0,0,0,0,0,0,0,0,0,0,0,0,0,0,0,0,0,0,0,0,0,0,0,0,0,0,0,0,0,0,
0,0,0,0,0,0,0,0,0,0,0,0,0,0,0,0,0,0,0,0,0,0,0,0,0,0,0,0,0,0,0,0,0,0,0,0,0,0,0,0,0,0,0,0,0,0,0,0,0,0,0,0,0,0,0
</data>
 </layer>
 <objectgroup color="#55aaff" id="5" name="collision">
  <object id="11" x="400" y="200" width="360" height="40"/>
  <object id="12" x="720" y="0" width="40" height="200"/>
  <object id="13" x="840" y="200" width="360" height="40"/>
  <object id="14" x="840" y="0" width="40" height="200"/>
  <object id="16" x="400" y="600" width="800" height="40"/>
  <object id="20" x="0" y="480" width="400" height="40"/>
  <object id="21" x="360" y="520" width="40" height="80"/>
  <object id="22" x="-40" y="280" width="40" height="200"/>
  <object id="23" x="0" y="240" width="400" height="40"/>
  <object id="26" x="1200" y="560" width="400" height="40"/>
  <object id="28" x="1600" y="480" width="40" height="80"/>
  <object id="29" x="1600" y="240" width="40" height="80"/>
  <object id="31" x="1200" y="240" width="120" height="40"/>
  <object id="33" x="1560" y="120" width="40" height="160"/>
  <object id="34" x="1320" y="120" width="40" height="160"/>
  <object id="35" x="1360" y="80" width="200" height="40"/>
  <object id="38" x="1600" y="320" width="240" height="40"/>
  <object id="39" x="1800" y="280" width="40" height="40"/>
  <object id="40" x="1840" y="240" width="360" height="40"/>
  <object id="41" x="2000" y="440" width="200" height="40"/>
  <object id="42" x="1640" y="480" width="360" height="40"/>
  <object id="51" x="120" y="280" width="40" height="200"/>
 </objectgroup>
 <objectgroup color="#ff00ff" id="2" name="objects">
  <object id="1" name="transition" x="760" y="80" width="80" height="40">
   <properties>
    <property name="map" value="example_map"/>
    <property name="marker" value="entry"/>
   </properties>
  </object>
  <object id="36" name="npc" x="1458" y="216">
   <properties>
    <property name="actor" value="sans"/>
    <property name="cutscene" value="sans.plaza"/>
   </properties>
   <point/>
  </object>
  <object id="37" name="savepoint" x="1339.45" y="300.091">
   <properties>
    <property name="text1" value="* The Savepoint being next to Sans \nsends a shiver down your spine."/>
    <property name="text2" value="* You are filled with anxiety."/>
   </properties>
   <point/>
  </object>
  <object id="43" name="transition" x="0" y="280" width="40" height="200">
   <properties>
    <property name="map" value="arena"/>
    <property name="marker" value="entry"/>
   </properties>
  </object>
  <object id="47" name="npc" x="480" y="320">
   <properties>
    <property name="actor" value="kip"/>
    <property name="text1" value="* Hi Krisy![wait:5] Im not canun to this project yet,[wait:5] but I wil be![wait:5] Evenchaly![wait:5] I hope."/>
    <property name="turn" type="bool" value="true"/>
   </properties>
   <point/>
  </object>
  <object id="49" name="transition" x="2160" y="280" width="40" height="160">
   <properties>
    <property name="map" value="climb_entry"/>
    <property name="marker" value="entry"/>
   </properties>
  </object>
  <object id="52" name="interactable" x="160" y="280" width="23" height="199.667">
   <properties>
    <property name="text1_1" value="* (There is a sign next to the tape.)"/>
    <property name="text1_2" value="* &quot;WARNING![wait:5] This area is OFF LIMITS temporarily while our creator procrastinates!&quot;"/>
    <property name="text1_3" value="[voice:susie][face:susie/teeth_smile]* Hey Kris,[wait:5] let's jump it."/>
    <property name="text1_4" value="[voice:ralsei][face:ralsei/angry_surprise, -15, -10] * Even if we can,[wait:5] it's incredibly disrespectful!"/>
    <property name="text1_5" value="[voice:ralsei][face:ralsei/unsure, -15, -10] * Kris...[wait:5] let's not,[wait:5] okay?"/>
    <property name="text2_1" value="* (Listen to your boyfriend,[wait:5] asshole.)"/>
   </properties>
  </object>
  <object id="53" name="interactable" x="600" y="200" width="120" height="80">
   <properties>
    <property name="text1" value="* (It's a sign!)"/>
    <property name="text10" value="8. [glow:170, 115, 1, 0, 0, 10][color:red]w o k e"/>
    <property name="text11" value="* 9. She's relatable!"/>
    <property name="text12" value="10. She's an epic gaymer."/>
    <property name="text13" value="11. She introduced me to the peak that is The Amazing Bulk"/>
    <property name="text14" value="* 12. Did I say that she's a nice person already?"/>
    <property name="text15" value="* 13. Snape[wait:5] Snape[wait:5] Severus Snape"/>
    <property name="text16" value="* 14. Dumbledore!"/>
    <property name="text2" value="* (19 Reasons why I love Riley)"/>
    <property name="text3">* 1. She's really helpful![wait:5] She took me to school every day!
</property>
    <property name="text4">* 2. She's really nice :&gt;
</property>
    <property name="text5">* 3. She's like,[wait:5] really chill and I feel like I can be myself around her
</property>
    <property name="text6" value="4. F u n n y"/>
    <property name="text7" value="* 5. She treats me like a PERSON and not like a child![wait:5] That's fairly rare in this society..."/>
    <property name="text8" value="* 6. She's just a genuinely good person!"/>
    <property name="text9" value="* 7. Like,[wait:5] I can't stress that enough.[wait:5] She's a really good human being."/>
   </properties>
  </object>
 </objectgroup>
 <objectgroup color="#5500ff" id="4" name="markers">
  <object id="8" name="entry" x="800" y="240">
   <point/>
  </object>
  <object id="9" name="spawn" x="1339.33" y="356">
   <point/>
  </object>
  <object id="44" name="entry_arena" x="73.5" y="375.5">
   <point/>
  </object>
  <object id="50" name="entry_climb" x="2120" y="360">
   <point/>
  </object>
 </objectgroup>
</map>
