<?xml version="1.0" encoding="UTF-8"?>
<map version="1.11" tiledversion="1.12.2" orientation="orthogonal" renderorder="right-down" width="16" height="24" tilewidth="40" tileheight="40" infinite="0" nextlayerid="7" nextobjectid="49">
 <editorsettings>
  <export target="seth_may.lua" format="lua"/>
 </editorsettings>
 <tileset firstgid="1" source="../tilesets/castle.tsx"/>
 <layer id="1" name="Tile Layer 1" width="16" height="24">
  <data encoding="csv">
0,0,0,0,0,0,0,0,0,0,0,0,0,0,0,0,
0,0,0,0,0,0,0,0,0,0,0,0,0,0,0,0,
0,0,0,0,0,0,0,0,0,0,0,0,0,0,0,0,
0,0,0,0,0,0,0,0,0,0,0,0,0,0,0,0,
8,9,9,9,9,9,9,9,9,9,9,9,9,9,9,10,
14,15,15,15,15,15,15,15,15,15,15,15,15,15,15,16,
14,15,15,15,15,15,15,15,15,15,15,15,15,15,15,16,
14,15,15,15,15,15,15,15,15,15,15,15,15,15,15,16,
14,15,15,15,15,15,15,15,15,15,15,15,15,15,15,16,
20,21,21,21,21,21,21,21,21,21,21,21,21,21,21,22,
27,27,27,27,27,27,27,27,27,27,27,27,27,27,27,27,
33,33,33,33,31,33,33,33,33,33,31,33,33,33,33,33,
33,33,31,33,33,33,31,33,33,31,33,33,33,33,33,31,
33,33,33,33,33,33,33,31,33,33,33,31,33,31,33,33,
31,33,33,33,33,33,33,33,33,33,33,33,33,33,33,33,
38,39,39,39,39,39,39,39,39,39,39,39,39,39,39,40,
0,0,0,0,0,0,0,0,0,0,0,0,0,0,0,0,
0,0,0,0,0,0,0,0,0,0,0,0,0,0,0,0,
8,9,9,9,9,9,9,9,9,9,9,9,9,9,9,10,
14,15,15,15,15,15,15,15,25,15,15,15,15,15,15,16,
14,15,15,15,15,15,15,15,15,15,15,15,15,15,15,16,
20,21,21,21,21,21,21,21,21,21,21,21,21,21,21,22,
27,27,27,27,27,27,27,27,27,27,27,27,27,27,27,27,
33,33,11,33,33,31,33,33,33,33,31,33,33,33,33,31
</data>
 </layer>
 <objectgroup id="5" name="collision">
  <object id="11" x="640" y="720" width="40" height="160"/>
  <object id="13" x="0" y="880" width="640" height="40"/>
  <object id="14" x="-40" y="720" width="40" height="160"/>
  <object id="15" x="0" y="680" width="640" height="40"/>
  <object id="16" x="0" y="400" width="640" height="40"/>
  <object id="17" x="-40" y="160" width="40" height="240"/>
  <object id="18" x="0" y="120" width="640" height="40"/>
  <object id="19" x="640" y="160" width="40" height="240"/>
 </objectgroup>
 <layer id="2" name="Tile Layer 2" width="16" height="24">
  <data encoding="csv">
0,0,0,0,0,0,0,0,0,0,0,0,0,0,0,0,
0,0,0,0,0,0,0,0,0,0,0,0,0,0,0,0,
0,0,0,0,0,0,0,0,0,0,0,0,0,0,0,0,
0,0,0,0,0,0,0,0,0,0,0,0,0,0,0,0,
0,0,0,0,0,0,0,0,0,0,0,0,0,0,0,0,
0,25,0,0,0,0,0,0,0,0,0,25,0,0,25,0,
0,44,45,46,0,0,0,0,25,0,0,0,44,45,46,0,
0,50,51,52,0,0,0,0,0,0,0,0,50,51,52,0,
0,56,57,58,0,0,25,0,0,0,0,0,56,57,58,0,
0,0,0,0,0,0,0,0,0,0,0,0,0,0,0,0,
0,0,0,0,0,0,0,0,0,0,0,0,0,0,0,0,
0,0,0,0,0,0,0,0,0,0,0,0,0,0,0,0,
0,0,0,0,0,0,0,0,0,0,0,0,0,0,0,0,
0,0,0,0,0,0,0,0,0,0,0,0,0,0,0,0,
0,0,0,0,0,0,0,0,0,0,0,0,0,0,0,0,
0,0,0,0,0,0,0,0,0,0,0,0,0,0,0,0,
0,0,0,0,0,0,0,0,0,0,0,0,0,0,0,0,
0,0,0,0,0,0,0,0,0,0,0,0,0,0,0,0,
0,0,0,0,0,0,0,0,0,0,0,0,0,0,0,0,
0,44,45,46,0,0,0,0,0,0,0,0,44,45,46,0,
0,50,51,52,0,25,0,0,0,0,25,0,50,51,52,0,
0,56,57,58,0,0,0,0,0,0,0,0,56,57,58,0,
0,0,6,0,0,0,0,0,0,0,0,0,0,0,0,0,
0,0,18,0,0,0,0,0,0,0,0,0,0,0,0,0
</data>
 </layer>
 <objectgroup color="#ff55ff" id="3" name="objects">
  <object id="3" name="npc" x="360" y="280">
   <properties>
    <property name="actor" value="may"/>
   </properties>
   <point/>
  </object>
  <object id="4" name="npc" x="280" y="280">
   <properties>
    <property name="actor" value="seth"/>
   </properties>
   <point/>
  </object>
  <object id="5" name="transition" x="79.6667" y="941.333" width="40" height="40">
   <properties>
    <property name="map" value="claimb"/>
    <property name="marker" value="window_out"/>
   </properties>
  </object>
  <object id="7" name="climbarea" x="80" y="880" width="40" height="80"/>
  <object id="8" name="climbentry" x="80" y="840" width="40" height="40">
   <properties>
    <property name="target" type="object" value="9"/>
   </properties>
  </object>
  <object id="9" name="climbexit" x="80" y="880" width="40" height="40">
   <properties>
    <property name="target" type="object" value="10"/>
   </properties>
  </object>
  <object id="22" name="npc" x="-80" y="240">
   <properties>
    <property name="actor" value="kim"/>
   </properties>
   <point/>
  </object>
  <object id="23" name="npc" x="-80" y="280">
   <properties>
    <property name="actor" value="aqua"/>
   </properties>
   <point/>
  </object>
  <object id="26" name="savepoint" x="440" y="800">
   <point/>
  </object>
  <object id="28" name="script" x="280" y="720" width="80" height="160">
   <properties>
    <property name="cutscene" value="mayseth.talk"/>
   </properties>
  </object>
  <object id="30" name="climbmover" x="560" y="688" width="40" height="40">
   <properties>
    <property name="exit" type="object" value="33"/>
    <property name="target" type="object" value="31"/>
   </properties>
  </object>
  <object id="42" name="climbmover" x="0" y="130" width="40" height="40">
   <properties>
    <property name="target" type="object" value="44"/>
   </properties>
  </object>
  <object id="45" name="savepoint" x="320" y="280">
   <properties>
    <property name="text1" value="* The fact that May and Seth are getting along fills you with warmth."/>
   </properties>
   <point/>
  </object>
  <object id="47" name="transition" x="268.667" y="-184" width="218.222" height="85.6667">
   <properties>
    <property name="map" value="claimb"/>
    <property name="marker" value="cutscene_exit"/>
    <property name="player_state" value="CLIMB"/>
   </properties>
  </object>
 </objectgroup>
 <objectgroup id="6" name="controllers">
  <object id="32" name="toggle" x="640" y="640">
   <properties>
    <property name="flag" value="post_mayseth"/>
    <property name="target" type="object" value="30"/>
   </properties>
   <point/>
  </object>
  <object id="43" name="toggle" x="669" y="146">
   <properties>
    <property name="flag" value="post_mayseth"/>
    <property name="target" type="object" value="42"/>
   </properties>
   <point/>
  </object>
  <object id="46" name="toggle" x="320" y="160">
   <properties>
    <property name="flag" value="post_mayseth_save"/>
    <property name="target" type="object" value="45"/>
   </properties>
   <point/>
  </object>
 </objectgroup>
 <objectgroup id="4" name="markers">
  <object id="6" name="window_in" x="80" y="880" width="40" height="40">
   <properties>
    <property name="player_state" value="CLIMB"/>
   </properties>
  </object>
  <object id="10" x="100.333" y="811">
   <point/>
  </object>
  <object id="27" name="spawn" x="440" y="760">
   <point/>
  </object>
  <object id="31" x="519" y="409" width="40" height="40"/>
  <object id="33" x="540" y="293">
   <point/>
  </object>
  <object id="37" x="540.667" y="813.667">
   <point/>
  </object>
  <object id="44" x="360" y="-160" width="40" height="40"/>
 </objectgroup>
</map>
